X:1
T:King Carl XVI Gustav of Sweden
M:C
L:1/8
Q:80
C:John A MacLellan MBE
S:March
K:HP
e |: \
{g}A2{gde}d2{GBG}A2{g}e3/2f/2 | \
{gf}g3/2f/2{g}ea{fg}f2{g}d2 | \
{GBG}A2{gde}dB{gBd}B{e}A{g}f3/2g/2 |
{ag}ag/2{afg}fd{gef}e2-e2 | \
{g}A2{gde}d2{GBG}A2{g}e3/2f/2 | \
{gf}g3/2f/2{g}ea{fg}f2{g}e3/2f/2 |
{gf}g2{AGAG}Aa{g}gf{gef}ed | \
{g}f2{gfg}f3/2e/2{Gdc}d2-d:| [ | \
{g}A3/2B/2{Gdc}df{g}d2{GBG}Af |
{gf}g3/2f/2{g}ed{gef}e2{ag}a2 | \
{Gdc}d2{g}d/2f3/2{g}d2{GBG}Af | \
{gf}g3/2f/2{g}ed{gef}e2-e2 |
{g}A3/2B/2{Gdc}df{g}d2{GBG}Af | \
{gf}g3/2f/2{g}ed{gef}e2{fg}f2{g}e3/2f/2 | \
{gf}a2{AGAG}Aa{g}gf{gef}ed |
{g}f2{gfg}f3/2e/2{Gdc}d2-d|]
{g}A3/2B/2{Gdc}df{g}d2{GBG}Af | \
{gf}g3/2f/2{g}ed{gef}e2{ag}a2 |
{Gdc}d2{g}d/2f3/2{g}d2{GBG}Af | \
{gf}g3/2f/2{g}ed{gef}e2-e2 | \
{g}A3/2B/2{Gdc}df{g}d2{GBG}A2 |
{gf}g3/2f/2{g}ed{g}e2{GdGe}A3/2f/2 | \
{ag}a2{g}a3/2g/2{a}f3/2g/2{ag}ag/2 | \
{a}f2{gfg}f3/2e/2{Gdc}d2-d|]
